icons/image.svg

<svg width="24" height="24" viewBox="0 0 24 24" fill="none" xmlns="http://www.w3.org/2000/svg">
<path fill-rule="evenodd" clip-rule="evenodd" d="M4.09789 4.10969C4.09787 4.10987 4.09768 4.11119 4.09791 4.11412C4.2439 5.92428 4.5 9.45607 4.5 12C4.5 12.3501 4.49515 12.7189 4.4864 13.0994L8.29289 9.29289L8.96713 8.61866L9.67267 9.26006L12.6338 11.952L15.2929 9.29289L15.9596 8.62616L16.6644 9.25259L19.5007 11.7737C19.5149 9.25042 19.7604 5.8712 19.9021 4.11412C19.9023 4.11116 19.9021 4.10984 19.9021 4.10969L19.9019 4.10895C19.9016 4.10807 19.9003 4.10554 19.8974 4.1026C19.8945 4.09967 19.8919 4.09842 19.8911 4.09809L19.8903 4.0979C19.8902 4.09787 19.8888 4.09767 19.8859 4.09791C18.0757 4.2439 14.5439 4.5 12 4.5C9.45607 4.5 5.92428 4.2439 4.11412 4.09791C4.11119 4.09768 4.10987 4.09787 4.10969 4.09789L4.10969 4.0979L4.10895 4.09809C4.10807 4.09842 4.10554 4.09967 4.1026 4.1026C4.09967 4.10554 4.09842 4.10807 4.09809 4.10895L4.0979 4.10969L4.09789 4.10969ZM19.5601 14.5025L16.0404 11.3738L14.1154 13.2989L19.7929 18.4603C19.7087 17.298 19.6179 15.8811 19.5601 14.5025ZM4.09791 19.8859C4.17375 18.9456 4.2793 17.5407 4.36323 16.051L9.03287 11.3813L18.2706 19.7793C16.3916 19.6452 13.9157 19.5 12 19.5C9.45607 19.5 5.92428 19.7561 4.11412 19.9021C4.11116 19.9023 4.10984 19.9021 4.10969 19.9021L4.10895 19.9019C4.10807 19.9016 4.10554 19.9003 4.1026 19.8974C4.09967 19.8945 4.09842 19.8919 4.09809 19.8911L4.0979 19.8903C4.09787 19.8902 4.09767 19.8888 4.09791 19.8859ZM2.10439 4.2749C2.00463 3.03798 3.03797 2.00463 4.2749 2.10439C6.08771 2.25059 9.54606 2.5 12 2.5C14.4539 2.5 17.9123 2.25059 19.7251 2.10439C20.962 2.00463 21.9954 3.03797 21.8956 4.2749C21.7494 6.08771 21.5 9.54606 21.5 12C21.5 14.4539 21.7494 17.9123 21.8956 19.7251C21.9954 20.962 20.962 21.9954 19.7251 21.8956C17.9123 21.7494 14.4539 21.5 12 21.5C9.54606 21.5 6.08771 21.7494 4.2749 21.8956C3.03798 21.9954 2.00463 20.962 2.10439 19.7251C2.25059 17.9123 2.5 14.4539 2.5 12C2.5 9.54606 2.25059 6.08771 2.10439 4.2749Z" fill="#333333"/>
</svg>

<svg xmlns="http://www.w3.org/2000/svg" width="24" height="24" fill="none" viewBox="0 0 24 24">
  <path fill="#333" fill-rule="evenodd" d="M4.098 4.11v.004C4.244 5.924 4.5 9.456 4.5 12c0 .35-.005.719-.014 1.1l3.807-3.807.674-.674.706.641 2.96 2.692 2.66-2.66.667-.666.704.627 2.837 2.52c.014-2.523.26-5.902.401-7.659V4.11a.02.02 0 00-.005-.006.02.02 0 00-.006-.005h-.005c-1.81.146-5.342.402-7.886.402-2.544 0-6.076-.256-7.886-.402H4.11l-.006.005a.02.02 0 00-.005.006zM19.56 14.503l-3.52-3.13-1.925 1.926 5.678 5.161a135.158 135.158 0 01-.233-3.958zM4.098 19.886c.076-.94.181-2.345.265-3.835l4.67-4.67 9.238 8.398c-1.88-.134-4.355-.279-6.271-.279-2.544 0-6.076.256-7.886.402H4.11a.02.02 0 01-.006-.005.02.02 0 01-.005-.006v-.005zM2.104 4.275a2.016 2.016 0 012.17-2.17C6.089 2.25 9.547 2.5 12 2.5c2.454 0 5.912-.25 7.725-.396 1.237-.1 2.27.934 2.17 2.17C21.75 6.089 21.5 9.547 21.5 12c0 2.454.25 5.912.396 7.725a2.016 2.016 0 01-2.17 2.17C17.911 21.75 14.453 21.5 12 21.5c-2.454 0-5.912.25-7.725.396a2.016 2.016 0 01-2.17-2.17C2.25 17.911 2.5 14.453 2.5 12c0-2.454-.25-5.912-.396-7.725z"/>
</svg>
